X:1
T:Title
%%score { ( 1 4 ) | ( 2 3 ) }
L:1/8
Q:1/4=104
M:6/8
K:Bb
V:1 treble nm="Grand Piano"
V:4 treble 
V:2 bass 
V:3 bass 
V:1
 [Fd]2 [FB] ABc | [B,DB]3 [B,F]3 | [B,FA]3 [B,EG]3 | [DF]6 | z3 .[CA]3 | [FB]3 [Fd]3 | %6
w: W.~A.~Post * * * *||||||
 [=EG]3 [Ec]3 | [Ec]6 | [Fd]2 [FB] ABc | [B,DB]3 [B,F]3 | [B,EG]3 .[B,GB]3 | [^Fd]6 | %12
w: ||||||
 [=Ed]2 [Ed] [EB]2 [EG] | d2 d c2 F | [CFA]3 [B,=EG]3 | [A,F]6 | [EA]2 [EA] [EA]2 [CE] | [EA]6 | %18
w: ||||||
 [DG]2 [DG] [DG]2 [B,D] | [DG]6 | [A,EF]2 [A,EF] [A,EF]2 [A,EG] | [EA]2 [EA] .[EA]3 | %22
w: ||||
 [DG]2 [DG] [DG]2 [DA] | [DB]2 [DB] .[DB]3 | [EA]2 [EA] [EA]2 [CE] | [EA]6 | %26
w: ||||
 [DG]2 [DG] [DG]2 [B,D] | [DG]3- [DG]2 F, | B2 B BAB | d2 B F=EF | [B,=EG]3 .[C_EA]3 | [DB]6 |] %32
w: ||||||
V:2
 z3 .[CE]3 | B,,3 D,3 | E,2 F, G,2 A, | B,6 | z3 .F,3 | [D,B,]3 [B,,B,]3 | [C,B,]3 [C,B,]3 | %7
 [F,A,]6 | [B,,B,]2 [D,B,] [CE][B,D][F,A,E] | B,,3 D,3 | E,3 z2 G, | [D,A,]6 | %12
 [C,B,]2 [C,B,] [C,G,]2 [C,B,] | [F,A,F]2 [F,A,F] [F,A,F]2 [F,A,] | C,3 C,3 | F,6 | %16
 C,2 F, F,,2 F, | C,2 F, F,,C,F, | B,,2 F, F,,2 F, | B,,2 F, F,,B,,F, | C,2 F, F,,2 F, | %21
 C,2 F, F,,C,F, | B,,2 F, F,,2 F, | B,,2 F, F,,B,,F, | C,2 F, F,,2 F, | C,2 F, F,,C,F, | %26
 B,,2 F, F,,2 F, | B,,2 F, F,, .B,,2 | [^F,B,_D=E]2 [F,B,DE] [F,B,DE]2 [F,B,DE] | %29
 [F,B,F]2 [F,B,D] [D,B,D][_D,B,][=D,B,] | C,3 F,2 F, | [B,,F,]6 |] %32
V:3
 [B,,B,]2 [D,B,] F,-[F,B,D][F,A,E] | x6 | x6 | x6 | C,2 C, z B,[E,A,] | x6 | x6 | x6 | z3 .F,3 | %9
 x6 | z3 E,3 | x6 | x6 | x6 | x6 | x6 | x6 | x6 | x6 | x6 | x6 | x6 | x6 | x6 | x6 | x6 | x6 | x6 | %28
 x6 | x6 | x6 | x6 |] %32
V:4
 x6 | x6 | x6 | x6 | [A,EF]2 [A,EF] E-[EG]F | x6 | x6 | x6 | x6 | x6 | x6 | x6 | x6 | x6 | x6 | %15
 x6 | x6 | x6 | x6 | x6 | x6 | x6 | x6 | x6 | x6 | x6 | x6 | x6 | x6 | x6 | x6 | x6 |] %32

